HelpDesk_TicketSystem/ClientApp/src/assets/images/logo5.svg

<svg width="116" height="19" viewBox="0 0 116 19" fill="none" xmlns="http://www.w3.org/2000/svg">
<path d="M12.9299 8.49009L12.4889 8.24509L11.1649 7.51109C11.0727 7.46041 10.9691 7.43384 10.8639 7.43384C10.7586 7.43384 10.6551 7.46041 10.5629 7.51109L9.23888 8.24509L8.80188 8.48709L7.47688 9.22109C7.38662 9.27012 7.31118 9.34247 7.25841 9.43059C7.20564 9.51871 7.17749 9.61938 7.17688 9.72209V15.2401H8.80088V10.6231C8.80088 10.4161 8.91688 10.2261 9.10288 10.1231L10.5629 9.31309C10.6551 9.26241 10.7586 9.23584 10.8639 9.23584C10.9691 9.23584 11.0727 9.26241 11.1649 9.31309L12.6289 10.1251C12.7192 10.1738 12.7949 10.2459 12.8478 10.3339C12.9008 10.4219 12.9291 10.5224 12.9299 10.6251V15.2391H14.5549V9.72409C14.554 9.62157 14.5257 9.52116 14.473 9.43325C14.4202 9.34533 14.3449 9.27312 14.2549 9.22409L12.9299 8.49009Z" fill="#FEE700"/>
<path d="M16.1539 6.60304L12.4809 4.53604L11.1629 3.79504C11.0714 3.74389 10.9683 3.71704 10.8634 3.71704C10.7585 3.71704 10.6554 3.74389 10.5639 3.79504L9.2459 4.53604L5.5769 6.60104L4.2599 7.34204C4.16961 7.39205 4.09424 7.46518 4.04152 7.55392C3.9888 7.64266 3.96063 7.74382 3.9599 7.84704V15.238H5.5779V8.75704C5.5779 8.54804 5.6919 8.35604 5.8779 8.25204L10.5639 5.61404C10.6551 5.56242 10.7581 5.53529 10.8629 5.53529C10.9677 5.53529 11.0707 5.56242 11.1619 5.61404L15.8529 8.25404C16.0379 8.35904 16.1529 8.55104 16.1529 8.76004V15.24H17.7719V7.85004C17.7714 7.74678 17.7433 7.64553 17.6906 7.55676C17.6378 7.46798 17.5623 7.39489 17.4719 7.34504L16.1539 6.60304Z" fill="#FFCF04"/>
<path d="M20.6889 5.47302L11.1639 0.0780247C11.0727 0.0268676 10.9699 0 10.8654 0C10.7609 0 10.6581 0.0268676 10.5669 0.0780247L1.0429 5.47102C0.952631 5.52149 0.877386 5.59502 0.824852 5.6841C0.772319 5.77318 0.744382 5.87461 0.743896 5.97802L0.743896 17.813C0.743896 18.136 1.0119 18.398 1.3409 18.398H8.8149V16.815H2.3579V6.89302C2.3579 6.68302 2.4719 6.49003 2.6579 6.38503L10.5639 1.90702C10.6549 1.8554 10.7578 1.82826 10.8624 1.82826C10.967 1.82826 11.0699 1.8554 11.1609 1.90702L19.0739 6.38702C19.2589 6.49202 19.3739 6.68502 19.3739 6.89402V16.814H12.9159V18.398H20.3889C20.7189 18.398 20.9869 18.135 20.9869 17.812V5.98002C20.9864 5.87661 20.9585 5.77518 20.9059 5.6861C20.8534 5.59702 20.7782 5.52349 20.6879 5.47302" fill="#FFAD03"/>
<path d="M51.6529 12.0001C51.6089 14.0061 50.1469 16.3501 46.1689 16.3501C43.7529 16.3501 42.3119 15.3801 42.3119 13.7531C42.3119 11.9801 43.6999 11.0681 46.6779 10.8851L51.6549 10.7331L51.6529 12.0011V12.0001ZM47.6509 2.4041H47.5739C45.3379 2.4041 43.4619 3.0511 42.2879 4.2271C41.6339 4.87399 41.1893 5.70248 41.0119 6.6051C41.0075 6.62971 41.0085 6.655 41.015 6.67915C41.0215 6.7033 41.0332 6.72573 41.0494 6.74483C41.0655 6.76393 41.0857 6.77924 41.1084 6.78965C41.1311 6.80007 41.1559 6.80535 41.1809 6.8051H43.3309C43.7799 5.2641 45.2679 4.4131 47.5429 4.4131H47.6209C50.1459 4.4151 51.6529 5.2951 51.6529 6.7671V8.7401C51.6529 8.7921 51.6129 8.8321 51.5609 8.8361L46.3609 9.0581C42.1409 9.2781 40.0909 10.8131 40.0909 13.7531C40.0909 17.1701 43.1839 18.3881 46.0789 18.3881C48.3079 18.3881 49.9379 17.7881 51.3669 16.4371L51.6849 16.0891V18.0841H53.8459V7.0681C53.8439 4.1061 51.5859 2.4061 47.6519 2.4031L47.6509 2.4041ZM63.3849 2.4031C58.9489 2.4031 55.8379 6.0031 55.8379 10.4261C55.8379 14.8161 58.8139 18.3881 63.3849 18.3881C65.8599 18.3881 67.8589 17.3721 69.2679 15.5281C69.5759 15.1241 69.8559 14.6581 70.0829 14.1691C70.0943 14.1424 70.099 14.1132 70.0963 14.0843C70.0937 14.0554 70.0839 14.0275 70.0679 14.0033C70.0518 13.9791 70.0299 13.9593 70.0043 13.9456C69.9786 13.9319 69.9499 13.9249 69.9209 13.9251H67.6889C67.4035 14.3756 67.0557 14.7833 66.6559 15.1361C65.7139 15.9491 64.6759 16.3511 63.3849 16.3511C60.5229 16.3511 58.0889 13.7091 58.0889 10.4261C58.0889 7.1101 60.5229 4.4401 63.3849 4.4401C64.7549 4.4401 65.8579 4.9061 66.8389 5.8401C66.9749 5.9701 67.3189 6.3191 67.6459 6.8051H69.8889C69.9183 6.80526 69.9473 6.798 69.9732 6.784C69.999 6.76999 70.0209 6.74969 70.0369 6.72497C70.0528 6.70026 70.0623 6.67192 70.0644 6.64257C70.0665 6.61323 70.0612 6.58383 70.0489 6.5571C69.7389 5.91416 69.3381 5.31908 68.8589 4.7901C67.4599 3.2501 65.6059 2.4031 63.3859 2.4031M83.1489 12.0001C83.1039 14.0061 81.6429 16.3501 77.6639 16.3501C75.2479 16.3501 73.8049 15.3801 73.8049 13.7531C73.8049 11.9801 75.1939 11.0681 78.1709 10.8851L83.1469 10.7331L83.1489 12.0011V12.0001ZM79.1489 2.4031H79.0699C76.8369 2.4031 74.9589 3.0501 73.7849 4.2261C73.134 4.86927 72.6906 5.69264 72.5119 6.5901C72.5072 6.6165 72.5084 6.6436 72.5153 6.6695C72.5222 6.69539 72.5348 6.71945 72.5521 6.73996C72.5693 6.76047 72.5909 6.77693 72.6152 6.78819C72.6396 6.79945 72.6661 6.80522 72.6929 6.8051H74.8269C75.2749 5.2631 76.7649 4.4121 79.0399 4.4121H79.1179C81.6429 4.4141 83.1499 5.2941 83.1499 6.7661V8.7401C83.1499 8.7921 83.1099 8.8321 83.0579 8.8361L77.8579 9.0581C73.6379 9.2781 71.5879 10.8131 71.5879 13.7531C71.5879 17.1701 74.6809 18.3881 77.5749 18.3881C79.8049 18.3881 81.4349 17.7881 82.8649 16.4371L83.1819 16.0891V18.0841H85.3419V7.0681C85.3379 4.1061 83.0819 2.4061 79.1469 2.4031H79.1489ZM93.7419 2.4021C89.6149 2.4021 87.7349 4.7051 87.7349 6.8451C87.7349 7.8141 87.9699 8.5601 88.4519 9.1251C89.5399 10.4021 91.0679 10.7131 93.8789 10.8951C96.6509 11.0731 98.0349 11.9691 98.1089 13.6321C98.1389 14.2891 97.9239 14.8721 97.4899 15.3201C96.8369 15.9921 95.6959 16.3481 94.1889 16.3481L94.0459 16.3461C92.3299 16.3221 90.8869 15.7131 90.0859 14.6741C89.9095 14.4459 89.7668 14.1937 89.6619 13.9251H87.5569C87.5293 13.9251 87.5021 13.9314 87.4774 13.9436C87.4527 13.9558 87.4311 13.9735 87.4143 13.9953C87.3975 14.0171 87.3859 14.0425 87.3805 14.0695C87.375 14.0966 87.3758 14.1245 87.3829 14.1511C88.1329 16.7631 90.6029 18.3411 94.0529 18.3861L94.2129 18.3881C96.3609 18.3881 98.1229 17.8061 99.1729 16.7481C99.9649 15.9511 100.355 14.9011 100.329 13.6281C100.272 10.7771 98.2959 9.2301 94.2889 8.9011C91.7039 8.6881 89.9819 8.2411 89.9819 6.7561C89.9819 5.4161 91.5979 4.4071 93.7409 4.4071C95.4439 4.4071 96.7339 5.0291 97.3729 6.1571C97.4329 6.2641 97.5439 6.4871 97.6409 6.8051H99.7459C99.7707 6.80505 99.7952 6.79956 99.8177 6.78902C99.8402 6.77847 99.8601 6.76312 99.876 6.74406C99.892 6.72499 99.9035 6.70267 99.9099 6.67867C99.9162 6.65466 99.9173 6.62955 99.9129 6.6051C99.8717 6.39018 99.8169 6.17809 99.7489 5.9701C99.0009 3.7021 96.8119 2.4021 93.7419 2.4021ZM113.579 12.0001C113.535 14.0061 112.073 16.3501 108.095 16.3501C105.679 16.3501 104.236 15.3801 104.236 13.7531C104.236 11.9801 105.625 11.0681 108.602 10.8851L113.579 10.7331V12.0011V12.0001ZM109.577 2.4041H109.499C107.266 2.4041 105.388 3.0511 104.214 4.2271C103.559 4.87488 103.114 5.70436 102.936 6.6081C102.916 6.7081 102.998 6.8041 103.102 6.8041H105.254C105.702 5.2621 107.193 4.4111 109.468 4.4111H109.546C112.07 4.4131 113.578 5.2941 113.578 6.7651V8.7391C113.578 8.7911 113.538 8.8321 113.486 8.8351L108.286 9.0571C104.066 9.2771 102.015 10.8121 102.015 13.7521C102.015 17.1701 105.108 18.3871 108.001 18.3871C110.231 18.3871 111.861 17.7871 113.291 16.4371L113.608 16.0881V18.0831H115.768V7.0661C115.768 4.1061 113.513 2.4061 109.578 2.4031L109.577 2.4041ZM37.8299 2.7641L33.0379 15.6001L28.1679 2.7641H26.0199C25.9922 2.76399 25.9649 2.77053 25.9403 2.78315C25.9157 2.79578 25.8944 2.81413 25.8784 2.83666C25.8623 2.85919 25.8519 2.88525 25.848 2.91264C25.844 2.94004 25.8468 2.96797 25.8559 2.9941L31.6959 18.0821H34.3459L40.1399 2.9951C40.1492 2.96897 40.1521 2.94097 40.1483 2.91348C40.1445 2.88599 40.1341 2.85983 40.118 2.83723C40.1019 2.81463 40.0806 2.79627 40.0558 2.78371C40.0311 2.77115 40.0036 2.76476 39.9759 2.7651L37.8299 2.7641Z" fill="#003349"/>
</svg>

<svg width="116" height="19" fill="none" xmlns="http://www.w3.org/2000/svg"><path d="m12.93 8.49-.441-.245-1.324-.734a.625.625 0 0 0-.602 0l-1.324.734-.437.242-1.325.734a.574.574 0 0 0-.3.501v5.518H8.8v-4.617c0-.207.116-.397.302-.5l1.46-.81a.625.625 0 0 1 .602 0l1.464.812a.572.572 0 0 1 .3.5v4.614h1.626V9.724a.576.576 0 0 0-.3-.5L12.93 8.49Z" fill="#FEE700"/><path d="M16.154 6.603 12.48 4.536l-1.318-.741a.614.614 0 0 0-.6 0l-1.317.741-3.67 2.065-1.316.741a.582.582 0 0 0-.3.505v7.391h1.618V8.757c0-.209.114-.401.3-.505l4.686-2.638a.607.607 0 0 1 .598 0l4.69 2.64c.186.105.3.297.3.506v6.48h1.62V7.85a.58.58 0 0 0-.3-.505l-1.318-.742Z" fill="#FFCF04"/><path d="M20.689 5.473 11.164.078a.61.61 0 0 0-.597 0L1.043 5.471a.584.584 0 0 0-.3.507v11.835c0 .323.269.585.598.585h7.474v-1.583H2.358V6.893c0-.21.114-.403.3-.508l7.906-4.478a.605.605 0 0 1 .597 0l7.913 4.48c.185.105.3.298.3.507v9.92h-6.458v1.584h7.473c.33 0 .598-.263.598-.586V5.98a.584.584 0 0 0-.3-.507" fill="#FFAD03"/><path d="M51.653 12c-.044 2.006-1.506 4.35-5.484 4.35-2.416 0-3.857-.97-3.857-2.597 0-1.773 1.388-2.685 4.366-2.868l4.977-.152-.002 1.268ZM47.65 2.404h-.077c-2.236 0-4.112.647-5.286 1.823a4.59 4.59 0 0 0-1.276 2.378.17.17 0 0 0 .169.2h2.15c.449-1.54 1.937-2.392 4.212-2.392h.078c2.525.002 4.032.882 4.032 2.354V8.74c0 .052-.04.092-.092.096l-5.2.222c-4.22.22-6.27 1.755-6.27 4.695 0 3.417 3.093 4.635 5.988 4.635 2.229 0 3.859-.6 5.288-1.95l.318-.349v1.995h2.16V7.068c-.001-2.962-2.26-4.662-6.193-4.665l-.001.001Zm15.734 0c-4.436 0-7.547 3.6-7.547 8.022 0 4.39 2.976 7.962 7.547 7.962 2.475 0 4.474-1.016 5.883-2.86.308-.404.588-.87.815-1.359a.175.175 0 0 0-.162-.244h-2.232c-.285.45-.633.858-1.033 1.211-.942.813-1.98 1.215-3.271 1.215-2.862 0-5.296-2.642-5.296-5.925 0-3.316 2.434-5.986 5.296-5.986 1.37 0 2.473.466 3.454 1.4.136.13.48.48.807.965h2.243a.175.175 0 0 0 .16-.248 7.454 7.454 0 0 0-1.19-1.767c-1.4-1.54-3.253-2.387-5.473-2.387M83.149 12c-.045 2.006-1.506 4.35-5.485 4.35-2.416 0-3.86-.97-3.86-2.597 0-1.773 1.39-2.685 4.367-2.868l4.976-.152.002 1.268Zm-4-9.597h-.08c-2.232 0-4.11.647-5.284 1.823a4.581 4.581 0 0 0-1.273 2.364.184.184 0 0 0 .18.215h2.135c.448-1.542 1.938-2.393 4.213-2.393h.078c2.525.002 4.032.882 4.032 2.354V8.74c0 .052-.04.092-.092.096l-5.2.222c-4.22.22-6.27 1.755-6.27 4.695 0 3.417 3.093 4.635 5.987 4.635 2.23 0 3.86-.6 5.29-1.95l.317-.349v1.995h2.16V7.068c-.004-2.962-2.26-4.662-6.195-4.665h.002Zm14.593 0c-4.127 0-6.007 2.302-6.007 4.442 0 .97.235 1.715.717 2.28 1.088 1.277 2.616 1.588 5.427 1.77 2.772.178 4.156 1.074 4.23 2.737.03.657-.185 1.24-.62 1.688-.652.672-1.793 1.028-3.3 1.028l-.143-.002c-1.716-.024-3.16-.633-3.96-1.672a3.022 3.022 0 0 1-.424-.749h-2.105a.18.18 0 0 0-.174.226c.75 2.612 3.22 4.19 6.67 4.235l.16.002c2.148 0 3.91-.582 4.96-1.64.792-.797 1.182-1.847 1.156-3.12-.057-2.85-2.033-4.398-6.04-4.727-2.585-.213-4.307-.66-4.307-2.145 0-1.34 1.616-2.349 3.759-2.349 1.703 0 2.993.622 3.632 1.75.06.107.17.33.268.648h2.105a.17.17 0 0 0 .167-.2 5.185 5.185 0 0 0-.164-.635C99 3.702 96.812 2.402 93.742 2.402ZM113.579 12c-.044 2.006-1.506 4.35-5.484 4.35-2.416 0-3.859-.97-3.859-2.597 0-1.773 1.389-2.685 4.366-2.868l4.977-.152v1.268Zm-4.002-9.596h-.078c-2.233 0-4.111.647-5.285 1.823a4.598 4.598 0 0 0-1.278 2.381c-.02.1.062.196.166.196h2.152c.448-1.542 1.939-2.393 4.214-2.393h.078c2.524.002 4.032.883 4.032 2.354V8.74c0 .052-.04.093-.092.096l-5.2.222c-4.22.22-6.271 1.755-6.271 4.695 0 3.418 3.093 4.635 5.986 4.635 2.23 0 3.86-.6 5.29-1.95l.317-.349v1.995h2.16V7.066c0-2.96-2.255-4.66-6.19-4.663l-.001.001Zm-71.747.36L33.038 15.6l-4.87-12.836H26.02a.173.173 0 0 0-.164.23l5.84 15.088h2.65L40.14 2.995a.173.173 0 0 0-.164-.23H37.83Z" fill="#003349"/></svg>
